X:1
T:Title
%%score ( 1 2 ) { ( 3 5 6 ) | 4 }
L:1/8
M:4/4
K:C
V:1 treble nm="Bright Piano"
V:2 treble 
V:3 bass nm="Bright Piano"
V:5 bass 
V:6 bass 
V:4 bass 
V:1
 z4 z2[Q:1/4=100] [CG]2 | [DG]2 [CE]2 [Ec]2 [EB]2 | [CA]2 [CG]2 [DG]2 F-[B,F] | %3
 [CE]2 A-[DA] [Dd]2 [Ec]2 | [DB]2 cA G-[CG] [D^F]2 |[M:3/4] [DG]6 |[M:1/4] [CG]2 | %7
[M:4/4] [DG]2 [CE]2 [Ec]2 [EB]2 | [CA]2 [CG]2 [DG]2 F-[B,F] | [CE]2 A-[DA] [Dd]2 [Ec]2 | %10
 [DB]2 cA G-[CG] [D^F]2 |[M:3/4] [DG]6 |[M:1/4] [CE]2 |[M:4/4] [CF]2 [DF]2 [DG]2 [CG]2 | %14
 [Cc]2 [C_B]2 [CA]2 [Dd]2 | [DB]2 [B,G]2 [Cc]2 AF |[M:3/4] [CE]2 [B,D]2 [G,C]2 |] %17
V:2
 x8 | x8 | z4 z2 .A,2 | z2 .E2 z4 | z2 C2 .B,2 z2 |[M:3/4] x6 |[M:1/4] x2 |[M:4/4] x8 | %8
 z4 z2 .A,2 | z2 .E2 z4 | z2 C2 .B,2 z2 |[M:3/4] x6 |[M:1/4] x2 |[M:4/4] x8 | x8 | z4 z2 C2 | %16
[M:3/4] x6 |] %17
V:3
 z4 z2 E,2 | G,2 G,2 A,2 G,2 | F,2 E,2 D,2 F,2 | G,2 E,^F, G,2 G,2 | G,2 E,2 G,2 A,2 |[M:3/4] B,6 | %6
[M:1/4] E,2 |[M:4/4] G,2 G,2 A,2 G,2 | F,2 E,2 D,2 F,2 | G,2 E,^F, G,2 G,2 | G,2 E,2 G,2 A,2 | %11
[M:3/4] B,6 |[M:1/4] G,2 |[M:4/4] A,2 A,2 G,2 E,2 | .E,2 z E, F,2 A,2 | G,2 z F, G,2 A,2 | %16
[M:3/4] G,2 G,F, E,2 |] %17
V:4
 z4 z2 C,2 | B,,2 C,2 A,,2 E,2 | z2 C,2 B,,2 D,2 | C,2 C,2 B,,2 C,2 | G,,2 A,,2 E,2 D,2 | %5
[M:3/4] G,,6 |[M:1/4] C,2 |[M:4/4] B,,2 C,2 A,,2 E,2 | z2 C,2 B,,2 D,2 | C,2 C,2 B,,2 C,2 | %10
 G,,2 A,,2 E,2 D,2 |[M:3/4] G,,6 |[M:1/4] C,2 |[M:4/4] A,,2 D,2 B,,2 C,2 | A,,2 z2 F,,2 F,2 | %15
 z4 E,2 F,2 |[M:3/4] z2 G,,2 C,2 |] %17
V:5
 x8 | x8 | x8 | x8 | x8 |[M:3/4] x6 |[M:1/4] x2 |[M:4/4] x8 | x8 | x8 | x8 |[M:3/4] x6 | %12
[M:1/4] x2 |[M:4/4] x8 | z .F,3 z4 | z2 G,2 z4 |[M:3/4] x6 |] %17
V:6
 x8 | x8 | x8 | x8 | x8 |[M:3/4] x6 |[M:1/4] x2 |[M:4/4] x8 | x8 | x8 | x8 |[M:3/4] x6 | %12
[M:1/4] x2 |[M:4/4] x8 | z2 G,,2 z4 | x8 |[M:3/4] x6 |] %17

